!!!COM: Music21
!!!OTL: A Balastreira
!!!OMV: pezas_mazurcas_a-balastreira_a-balastreira-partitura.musicxml
**kern
*part1
*staff1
*I"Bagpipes
*I'Bag
*clefG^2
*k[]
*M3/4
=1
!LO:TX:a:t=Allegro
8ggL
8ggJ
8ggL
8ffJ
8ggL
8aaJ
=
4gg
8eeL
8ffJ
4gg
=
8ggL
8ggJ
8ggL
8ffJ
8ggL
8aaJ
=
4ff
8ddL
8eeJ
4ff
=
8ffL
8ffJ
8ffL
8eeJ
8ffL
8ggJ
=
4ff
8ddL
8eeJ
4ff
=
8bbL
8cccJ
8bbL
8aaJ
8ggL
8ffJ
!!linebreak:original
=
4aa
8ggL
8ffJ
4gg
=
8ggL
8ggJ
8ggL
8ffJ
8ggL
8aaJ
=
4gg
8eeL
8ffJ
4gg
=
8ggL
8ggJ
8ggL
8ffJ
8ggL
8aaJ
=
4ff
8ddL
8eeJ
4ff
=
8ffL
8ffJ
8ffL
8eeJ
8ffL
8ggJ
=
4ff
8ddL
8eeJ
4ff
=
8bbL
8cccJ
8bbL
8aaJ
8ggL
8ffJ
!!linebreak:original
=
4ee
2ee
=||
*M3/4
!LO:TX:a:t=Allegro
8ggL
8ggJ
8ggL
8ffJ
8ggL
8aaJ
=
4gg
8eeL
8ffJ
4gg
=
8ggL
8ggJ
8ggL
8ffJ
8ggL
8aaJ
=
4ff
8ddL
8eeJ
4ff
=
8ffL
8ffJ
8ffL
8eeJ
8ffL
8ggJ
=
4ff
8ddL
8eeJ
4ff
=
8bbL
8cccJ
8bbL
8aaJ
8ggL
8ffJ
!!linebreak:original
=
4aa
8ggL
8ffJ
4gg
=
8ggL
8ggJ
8ggL
8ffJ
8ggL
8aaJ
=
4gg
8eeL
8ffJ
4gg
=
8ggL
8ggJ
8ggL
8ffJ
8ggL
8aaJ
=
4ff
8ddL
8eeJ
4ff
=
8ffL
8ffJ
8ffL
8eeJ
8ffL
8ggJ
=
4ff
8ddL
8eeJ
4ff
=
8bbL
8cccJ
8bbL
8aaJ
8ggL
8ffJ
!!linebreak:original
=
4ee
2ee
=||
4gg
4gg
8.ggL
16eeJk
=
4aa
4aa
8.aaL
16ffJk
=
4bb
8bbL
8aaJ
8cccL
8bbJ
=
4aa
8ggL
8ffJ
4gg
=
8aaL
8aaJ
8aaL
8ggJ
8bbL
8aaJ
=
4gg
8ffL
8eeJ
4ff
=
8ggL
8ggJ
8ggL
8ggJ
8aaL
8ggJ
=
4ff
8eeL
8ddJ
4ee
!!linebreak:original
=
4gg
4gg
8.ggL
16eeJk
=
4aa
4aa
8.aaL
16ffJk
=
4bb
8bbL
8aaJ
8cccL
8bbJ
=
4aa
8ggL
8ffJ
4gg
=
8aaL
8aaJ
8aaL
8ggJ
8bbL
8aaJ
=
4gg
8ffL
8eeJ
4ff
=
8bbL
8cccJ
8bbL
8aaJ
8ggL
8ffJ
=
4ee
2ee
=||
4gg
4gg
8.ggL
16eeJk
!!pagebreak:original
=
4aa
4aa
8.aaL
16ffJk
=
4bb
8bbL
8aaJ
8cccL
8bbJ
=
4aa
8ggL
8ffJ
4gg
=
8aaL
8aaJ
8aaL
8ggJ
8bbL
8aaJ
=
4gg
8ffL
8eeJ
4ff
=
8ggL
8ggJ
8ggL
8ggJ
8aaL
8ggJ
=
4ff
8eeL
8ddJ
4ee
=
4gg
4gg
8.ggL
16eeJk
!!linebreak:original
=
4aa
4aa
8.aaL
16ffJk
=
4bb
8bbL
8aaJ
8cccL
8bbJ
=
4aa
8ggL
8ffJ
4gg
=
8aaL
8aaJ
8aaL
8ggJ
8bbL
8aaJ
=
4gg
8ffL
8eeJ
4ff
=
8bbL
8cccJ
8bbL
8aaJ
8ggL
8ffJ
=
4ee
2ee
=||
*-
!!!system-decoration: s1,s2
